src/pos-icons/axis.svg

<svg height="24" viewBox="0 0 24 24" width="24" xmlns="http://www.w3.org/2000/svg"><path d="m2.61 21-1-1.73 9.39-5.42v-10.85h2v10.85l9.39 5.42-1 1.73-9.39-5.42z"/></svg>

<?xml version="1.0" encoding="UTF-8"?><!DOCTYPE svg PUBLIC "-//W3C//DTD SVG 1.1//EN" "http://www.w3.org/Graphics/SVG/1.1/DTD/svg11.dtd"><svg xmlns="http://www.w3.org/2000/svg" xmlns:xlink="http://www.w3.org/1999/xlink" version="1.1" id="mdi-axis" width="24" height="24" viewBox="0 0 24 24"><path d="M2.61,21L1.61,19.27L11,13.85V3H13V13.85L22.39,19.27L21.39,21L12,15.58L2.61,21Z" /></svg>
